X:29
T:Cease Your Funning Variations. ET.29
M:C
L:1/16
Q:1/4=120
S:Eliza Tennyson MS, Lincolnshire,1822
R:Air
N:No separate title in MS
O:England;Lincolnshire;Somersby
Z:vmp.R.Greig 2012 <http://www.village-music-project.org.uk>
K:A
{B}A>GA>B c>de>d c>Aa2 c>Aa2|{c}B>AB>c d>cB>A G>Ee2 G>Ee2|!
{B}A>GA>B c>BA>G F>Dd2 F>Dd2|G>Ee2 G>Ee2A4z2z2:|!
cAeA cAaA|zAGA dAfA dAaA dBaB|zEDE GEeE zEDE AEcE|!
zF4F4 eF^dF He2 BGE (GAeg) (Begb) (egbHc’) (bgeB) GHE 9F2G2|!
{B}A>GA>B c>de>d c>Aa2 c>Aa2|{c}B>AB>c d>cB>A G>Ee2 G>Ee2|!
{B}A>GA>B c>BA>G F>Dd2 F>Dd2|G>Ee2 G>Ee2|A4z4|
